X:1
T:Con Alma
C:Dizzy Gillespie
Z:All Rights Reserved
L:1/8
M:4/4
K:C
V:1 treble 
%%MIDI program 40
V:1
"Emaj7" ^G4"G#7/D#" G4 |"C#m7" ^G4"B7" G4 |"Bb7" ^G3 ^A/B/ A2 G2 |"Ebmaj7" =G4"Ebm7" _G2"Ab7" _A2 | %4
"Dbmaj7" F4"F7/C" F4 |"Bbm7" F4"Ab7" F4 |"G7" F3 G/_A/ G2 F2 |"Cmaj7" E8!fine! :| %8
"Cm7b5" _G>F _E/_D/E- _E4- |"F7b9" _E4 (3F2 _G2 _A2 |"F#m7" =A>_A _G/_F/G- G4- |"B7" _G4 _A2 =A2 | %12
"Emaj7" B8- | B8 |"Fm7" _B8- |"Bb7" _B8!D.C.! |] %16

